client/public/assets/icons/action/new_custom68.svg

<?xml version="1.0"?><svg xmlns="http://www.w3.org/2000/svg" width="52" height="52" viewBox="0 0 52 52"><path fill="#fff" d="m26 2c-13.2 0-24 10.8-24 24s10.8 24 24 24 24-10.8 24-24-10.8-24-24-24z m19 21.6h-6.3c-0.2-5.7-1.5-10.6-3.4-14.4 5.3 3 8.9 8.2 9.7 14.4z m-21.4-15.8v15.8h-5.5c0.4-7.5 2.8-13.4 5.5-15.8z m0 20.6v15.8c-2.7-2.3-5.1-8.2-5.5-15.8h5.5z m4.8 15.8v-15.8h5.5c-0.4 7.5-2.8 13.4-5.5 15.8z m0-20.6v-15.8c2.7 2.3 5.1 8.2 5.5 15.8h-5.5z m-11.7-14.4c-1.9 3.8-3.1 8.7-3.4 14.4h-6.3c0.8-6.2 4.4-11.4 9.7-14.4z m-9.7 19.2h6.3c0.2 5.7 1.5 10.6 3.4 14.4-5.3-3-8.9-8.2-9.7-14.4z m28.3 14.4c1.9-3.8 3.1-8.7 3.4-14.4h6.3c-0.8 6.2-4.4 11.4-9.7 14.4z"></path></svg>

<?xml version="1.0" encoding="utf-8"?>
<!-- Generator: Adobe Illustrator 18.1.1, SVG Export Plug-In . SVG Version: 6.00 Build 0)  -->
<svg version="1.1" id="Layer_1" xmlns="http://www.w3.org/2000/svg" xmlns:xlink="http://www.w3.org/1999/xlink" x="0px" y="0px"
	 width="52px" height="52px" viewBox="0 0 52 52" enable-background="new 0 0 52 52" xml:space="preserve">
<path fill="#FFFFFF" d="M26,2C12.8,2,2,12.8,2,26s10.8,24,24,24s24-10.8,24-24S39.2,2,26,2z M45,23.6h-6.3
	c-0.2-5.7-1.5-10.6-3.4-14.4C40.6,12.2,44.2,17.4,45,23.6z M23.6,7.8v15.8h-5.5C18.5,16.1,20.9,10.2,23.6,7.8z M23.6,28.4v15.8
	c-2.7-2.3-5.1-8.2-5.5-15.8C18.1,28.4,23.6,28.4,23.6,28.4z M28.4,44.2V28.4h5.5C33.5,35.9,31.1,41.8,28.4,44.2z M28.4,23.6V7.8
	c2.7,2.3,5.1,8.2,5.5,15.8H28.4z M16.7,9.2c-1.9,3.8-3.1,8.7-3.4,14.4H7C7.8,17.4,11.4,12.2,16.7,9.2z M7,28.4h6.3
	c0.2,5.7,1.5,10.6,3.4,14.4C11.4,39.8,7.8,34.6,7,28.4z M35.3,42.8c1.9-3.8,3.1-8.7,3.4-14.4H45C44.2,34.6,40.6,39.8,35.3,42.8z"/>
</svg>
